src/actions/16/format-text-subscript.svg

<svg xmlns="http://www.w3.org/2000/svg" viewBox="0 0 16 16">
  <defs id="defs3051">
    <style type="text/css" id="current-color-scheme">
      .ColorScheme-Text {
        color:#363636;
      }
      </style>
  </defs>
 <path style="fill:currentColor;fill-opacity:1;stroke:none" 
       d="M 6.3828125 2 L 2 13 L 3.3574219 13 L 4.546875 10 L 9 10 L 9.4746094 10 L 10 10 L 10 9 L 10 7.828125 L 7.7480469 2 L 6.3828125 2 z M 7.0625 3.328125 C 7.17566 3.704205 7.773975 5.4100894 8.859375 8.4433594 L 9.0839844 9 L 4.9414062 9 L 7.0625 3.328125 z M 11 9 L 11 14 L 12 14 L 13.5 14 C 14.32843 14 15 13.32843 15 12.5 C 15 11.9667 14.73181 11.48473 14.3125 11.21875 C 14.42796 11.00621 14.5 10.75888 14.5 10.5 C 14.5 9.67157 13.82844 9 13 9 L 12 9 L 11 9 z M 12 10 L 13 10 C 13.27614 10 13.5 10.22386 13.5 10.5 C 13.5 10.77614 13.27614 11 13 11 L 12 11 L 12 10 z M 12 12 L 13 12 L 13.5 12 C 13.77615 12 14 12.22386 14 12.5 C 14 12.77614 13.77615 13 13.5 13 L 12 13 L 12 12 z "
     class="ColorScheme-Text"
     />
</svg>

<svg xmlns="http://www.w3.org/2000/svg" viewBox="0 0 16 16">
    <path d="M6.383 2 2 13h1.357l1.19-3H10V7.828L7.748 2H6.383zm.68 1.328c.113.376.711 2.082 1.796 5.115L9.084 9H4.941l2.122-5.672zM11 9v5h2.5a1.5 1.5 0 0 0 1.5-1.5c0-.533-.268-1.015-.687-1.281.115-.213.187-.46.187-.719A1.5 1.5 0 0 0 13 9h-2zm1 1h1a.5.5 0 0 1 0 1h-1v-1zm0 2h1.5a.5.5 0 1 1 0 1H12v-1z" style="fill:currentColor;fill-opacity:1;stroke:none;color:#050505;opacity:.7"/>
</svg>
